!!!!SEGMENT: chor087.krn
!!!COM: Bach, Johann Sebastian
!!!CDT: 1685/02/21/-1750/07/28/
!!!OTL@@DE: Du, o sch&ouml;nes Weltgeb&auml;ude
!!!SCT: BWV 56/5
!!!PC#: 87
!!!AGN: chorale
**kern	**kern	**kern	**kern
*ICvox	*ICvox	*ICvox	*ICvox
*Ibass	*Itenor	*Ialto	*Isoprn
*I"Bass	*I"Tenor	*I"Alto	*I"Soprano
*clefF4	*clefGv2	*clefG2	*clefG2
*k[b-e-]	*k[b-e-]	*k[b-e-]	*k[b-e-]
*c:dor	*c:dor	*c:dor	*c:dor
*M4/4	*M4/4	*M4/4	*M4/4
*met(c)	*met(c)	*met(c)	*met(c)
*MM100	*MM100	*MM100	*MM100
*>[A,A,B,B,C]	*>[A,A,B,B,C]	*>[A,A,B,B,C]	*>[A,A,B,B,C]
*>norep[A,B,C]	*>norep[A,B,C]	*>norep[A,B,C]	*>norep[A,B,C]
*>A	*>A	*>A	*>A
!!xywh-#48:1914,1313,1009,493
=	=	=	=
4r	4ry	4ry	4r
2C	2G	2e-	2cc
4BB-	4B-	4d	4g
=	=	=	=
4AA	4c	8f#L	4cc
.	.	8gJ	.
4F#	8e-L	4a	4cc
.	8dJ	.	.
4G	4d	8aL	4b-
.	.	8gJ	.
4C	4e-	4g	8b-L
.	.	.	8aJ
=	=	=	=
2D	4.d	4g	2a
.	.	4f#	.
.	8c	.	.
2GG;	2Bn;	2d;	2g;
=	=	=	=
4r	4ry	4ry	4r
2AA-	2c	2c	2e-
4E-	4G	4c	4g
=	=	=	=
4F	4A-	8dL	4f
.	.	8BnJ	.
4F#	4An	4c	8e-L
.	.	.	8dJ
4G	4G	4c	4e-
4GG	8GL	4B	4d
.	8FnJ	.	.
=	=	=	=
1C;	1E-;	1G;	1c;
=:|!|:	=:|!|:	=:|!|:	=:|!|:
*>B	*>B	*>B	*>B
!!xywh-#49:108,20,2698,487
4C	2G	2c	2e-
4BB-X	.	.	.
4AA-	2B-	4d	4f
4GG	.	4e-	4g
=	=	=	=
4FF	4c	4f	4a-
4D	4B-	4f	4a-
4E-	4B-	8fL	4g
.	.	8dJ	.
4C	4c	4e-	4g
=	=	=	=
4AA-	4c	4e-	2f
4BB-	8B-L	4d	.
.	8A-XJ	.	.
2EE-;	2G;	2B-;	2e-;
=:|!	=:|!	=:|!	=:|!
*>C	*>C	*>C	*>C
4E-	4B-	4e-	4g
4C	4c	4e-	4an
4D	4B-	4f	4b-
4E-	4B-	4e-	4g
=	=	=	=
8AA-L	8cL	4e-	4cc
8GGJ	8B-J	.	.
4FF#	4An	8e-L	4cc
.	.	8dJ	.
2GG;	2G;	2d;	2bn;
=	=	=	=
8E-L	4G	4g	4cc
8DJ	.	.	.
4C	4c	4g	4ee-
8FL	8cL	8a-L	4dd
8GJ	8BnJ	[8gJ	.
4A-	8cL	8gL]	4cc
.	8dJ	8fJ	.
=	=	=	=
4G	4e-	4g	4cc
4GG	4d	4g	4bn
2C;	2en;	2g;	2cc;
==	==	==	==
*-	*-	*-	*-
!!!URL-github: https://github.com/craigsapp/bach-370-chorales/blob/main/kern/chor087.krn
!!!URL-scan: https://www.digitale-sammlungen.de/en/view/bsb11108042?page=48 Plate 12021 from the Bavarian State Library
!!!IIIF: https://api.digitale-sammlungen.de/iiif/presentation/v2/bsb11108042/manifest
!!!title: Chorale @{PC#}. @{OTL@@DE} (@{SCT})
!!!YOR1: 371 vierstimmige Choralges&auml;nge von Johann Sebastian Bach,
!!!YOR2: 4th ed. by Alfred D&ouml;rffel (Leipzig: Breitkopf und H&auml;rtel,
!!!YOR2: c.1875). 178 pp. Plate "V.A.10".  reprint: J.S. Bach, 371 Four-Part
!!!YOR4: Chorales (New York: Associated Music Publishers, Inc., c.1940).
!!!SMS: B&H, 4th ed, Alfred D&ouml;rffel, c.1875, plate V.A.10
!!!EED: Craig Stuart Sapp
!!!ENC: 2009/05/22
!!!EEV: 2023/11/19
!!!OMB: VA10 has written out repeats?
!!!filter-keyboard: satb2gs
<<<<<<< HEAD
!!!filter-ctonic: transpose -k c
=======
>>>>>>> a199df6 (Add pitch-range embedded filters.)
!!!filter-pitch-ranges: prange -a
